X:1
T:Nocturne No. 20
T:Nocturne No. 20
T:in C# minor
T:Frédéric Chopin
C:Frédéric Chopin
L:1/8
Q:1/4=69
M:4/4
K:E
V:1 treble nm="Violín" snm="Vln."
V:1
!p!"^lento con espressione" g4{ef} Tf4 | (g4 c4) | ((c'4 c'>)b (3c'ba) | a4 z4 | (g4 d4) | %5
 (e4 f2 c2) |({cd)e} ((Td6 d)c) | d4 z2 G2 | g4{efga} Tf4 | (g4 c2) (c2 | %10
 (3c')(=d'b (3agf) ^e/^d/(3(c/B/A/ (3G/F/^E/(3=D/C/B,/) | A,4 z2 A,2 | =D4 (=d3 c) | %13
 ((T^B2 ^B)=B/4=c/4^c/4^d/4) (e2 dc) | G2 A4 G2 | C4 z4 | (E2 F/G/A/B/) (3(c=dc B2) | %17
 (e=d/c/ BA) (3(c^dc B2) | [=de]2 ([=de]>[=de]) ([ce]2 [ec']2) | ([db]>[ca]) ([db]>[ec']) [ca]4 | %20
 (CD/^E/ FG) (3(ABA G2) | (cB/A/ GC) (3(ABA F2) | [FG]2 ([FG]>[FG]) ([EG]2 [Ge]2) | %23
 ([Fd]>[Ec]) ([Fd]>[Ge]) [Ec]4 |!mf! Tc2 ^Bc (e3 d) | (D>c) (cc) (((((^B d3)))) | %26
!p! (7:4:7d/^B/c/d/c/^B/c/) z2 (e3 d) | (D>c) (cc) (^B (d3) | %28
 (d2)[Q:1/4=45]"^lento\n" d/)(G,/D/^B/ D/G,/)(A,/D/ ^^F/d/c/A/) | %29
 (G/G/d/^b/ d/G/)(A/d/ f/d'/c'/a/ g)(G, | ^B,G,=B,D BGB(d) | gb g'2) z2 G2 | %32
[Q:1/4=69] g4{efga} Tf4 | (g4 c2) (c'2 | %34
 (3c')(=d'b (3agf) (3^e'/g'/(=d'/(3c'/b/a/ (3g/f/^e/(3=d/c/B/) | (A4 a4) | (g4 d4) | %37
!p! e4{ef} (Tf2 c2) | (3(de)(d (3^^cde) (f/g/)(3(a/^a/b/) (3(^b/^c'/^^c'/(3d'/e'/f'/) | %39
"_appassionato" e'4 d'2 ^c'2 | ^b2 a2 (g2 d2) | (e2 !tenuto!f)!tenuto!g (f2 c2) |"_dim." Td8 | %43
!mp!"^meno mosso" c4 (18:8:18(d/e/f/g/a/b/c'/d'/c'/b/a/g/f/e/d/c/B/A/) | %44
 G4!p! (35:8:35(A/B/c/d/e/f/g/a/b/c'/d'/e/f/g/a/b/c'/d'/c'/b/a/g/f/e/d'/c'/b/a/g/f/e/d/c/B/A/) | %45
 G4!pp! (11:8:11(A/B/c/d/e/f/e/d/c/B/A/) |"^a tempo" G4 (13:8:13A/B/c/d/e/f/g/f/e/d/c/B/A/ | %47
 G4 (g4 | g8) | (g'8 | !fermata!g'8) |] %51

